X:1
T:Title
%%score { 1 | 2 }
L:1/8
Q:1/4=100
M:6/8
K:D
V:1 treble nm="Grand Piano"
V:2 bass 
V:1
 F2 F F2 E | F2 G [DFA]3 | [DAd]2 [DGB] [DFA]2 [A,D] | [DF]3 [A,CE]3 | %4
w: W.~H.~Doane * * *||||
 [A,DF]2 [A,DF] [A,DF]2 [DFA] |[M:15/16] B->BBd3/2- d3 |[M:3/4] A2 F[A,DF][K:bass] [G,CE]2 | %7
w: |||
 [F,D]6 | [DGB]2 [DGB] [DGB]2 [DGB] | [GB]2 [FA] [FA]3 | c2 c c2 c | [Fd]3 [FA]3 | B2 B B2 B | %13
w: ||||||
 [GB]2 [FA] [FA]3 | [Ec]2 [Ac] [Bd]2 [^GB] | A6 | [Fd]3 [FA]3 | B3 d3 | d2 e d2 B | [GB]3 [FA]3 | %20
w: |||||||
 [DF]2 [FA][FA] [FA][FA] |[M:15/16] B->Bdd3/2- d3 |[M:3/4] A2 F[DF] [CE]2 | D6 |] %24
w: ||||
V:2
 [D,A,D]2 [D,A,D] [D,A,D]2 [G,A,C] | [F,A,D]2 [E,A,E] D,3 | F,2 G, D,2 F, | A,3 A,,3 | %4
 D,2 D, D,2 D, |[M:15/16][K:treble] [G,DG]->[G,DG][G,DG][G,B,G]3/2- [G,B,G]3 | %6
[M:3/4] [A,DF]2[K:bass] [A,D]A,, A,,2 | D,6 | G,,2 G,, G,,2 G,, | [D,D]2 [D,D] [D,D]3 | %10
 [A,EG]2 [A,EG] [A,EG]2 [A,EG] | [D,D]3 [D,D]3 | [G,DG]2 [G,DG] [G,DG]2 [G,DG] | %13
 [D,D]2 [D,D] [D,D]3 | [E,A,]2 [E,E] [E,E]2 [E,D] | [A,C]6 | [D,A,]3 [D,D]3 | [G,DG]3 [G,B,G]3 | %18
 [G,B,G]2 [G,B,G] [G,B,G]2 [G,DG] | [D,D]3 [D,D]3 | [D,A,]2 [D,D][D,D] [D,D][D,D] | %21
[M:15/16][K:treble] [G,DG]->[G,DG][G,B,G][G,B,G]3/2- [G,B,G]3 | %22
[M:3/4] [A,DF]2[K:bass] [A,D][A,,A,] [A,,G,]2 | [D,F,]6 |] %24

